src/assets/icons/P.svg

<?xml version="1.0" encoding="UTF-8" standalone="no"?>
<!DOCTYPE svg PUBLIC "-//W3C//DTD SVG 1.0//EN" "http://www.w3.org/TR/2001/REC-SVG-20010904/DTD/svg10.dtd">
<!-- Created with Inkscape (http://www.inkscape.org/) -->
<svg
   xmlns:svg="http://www.w3.org/2000/svg"
   xmlns="http://www.w3.org/2000/svg"
   version="1.0"
   width="800"
   height="1040"
   id="svg2">
  <defs
     id="defs4" />
  <rect
     width="741.73834"
     height="982.62433"
     x="30.962265"
     y="28.067698"
     id="rect3498"
     style="opacity:1;fill:#ffffff;fill-opacity:1;fill-rule:nonzero;stroke:#603e75;stroke-width:38.95716476;stroke-linecap:square;stroke-linejoin:miter;stroke-miterlimit:4;stroke-dasharray:none;stroke-opacity:1" />
  <rect
     width="667.80298"
     height="915.84412"
     x="67.929955"
     y="61.457874"
     id="rect3496"
     style="opacity:1;fill:#603e75;fill-opacity:1;fill-rule:nonzero;stroke:none;stroke-width:2;stroke-linecap:square;stroke-linejoin:round;stroke-miterlimit:4;stroke-dasharray:none;stroke-opacity:1" />
  <path
     d="M 379.24501,272.24557 L 379.24501,522.23067 C 380.9991,522.23103 383.48433,522.37722 386.7007,522.66924 C 389.91669,522.96198 392.25573,523.10817 393.71783,523.10781 C 405.41282,523.10817 413.38018,521.06151 417.61991,516.96783 C 421.85919,512.87487 423.97895,505.27299 423.97918,494.16217 L 423.97918,474.4265 L 423.97918,311.7169 C 423.97895,293.58992 421.93229,282.47948 417.8392,278.38555 C 413.74565,274.29284 405.41282,272.24618 392.84069,272.24557 L 379.24501,272.24557 z M 224.86824,884.05121 L 224.86824,154.70872 L 400.73495,154.70872 C 477.33829,154.70945 526.16574,163.40775 547.21745,180.80365 C 568.26845,198.20096 578.79413,239.79201 578.79452,305.57692 L 578.79452,488.02218 C 578.79413,554.39282 568.19536,596.27625 546.99816,613.67259 C 525.80026,631.06946 477.33829,639.76777 401.61209,639.76752 L 379.24501,639.76752 L 379.24501,884.05121 L 224.86824,884.05121 z"
     id="text3492"
     style="font-size:898.19207764px;font-style:normal;font-variant:normal;font-weight:normal;font-stretch:normal;text-align:start;line-height:100%;writing-mode:lr-tb;text-anchor:start;fill:#ffffff;fill-opacity:1;stroke:none;stroke-width:1px;stroke-linecap:butt;stroke-linejoin:miter;stroke-opacity:1;font-family:Compacta Bd BT;-inkscape-font-specification:Compacta Bd BT" />
</svg>

<svg xmlns="http://www.w3.org/2000/svg" version="1.0" width="800" height="1040"><path style="opacity:1;fill:#fff;fill-opacity:1;fill-rule:nonzero;stroke:#603e75;stroke-width:38.95716476;stroke-linecap:square;stroke-linejoin:miter;stroke-miterlimit:4;stroke-dasharray:none;stroke-opacity:1" d="M30.962 28.068H772.7v982.624H30.962z"/><path style="opacity:1;fill:#603e75;fill-opacity:1;fill-rule:nonzero;stroke:none;stroke-width:2;stroke-linecap:square;stroke-linejoin:round;stroke-miterlimit:4;stroke-dasharray:none;stroke-opacity:1" d="M67.93 61.458h667.803v915.844H67.93z"/><path d="M379.245 272.246V522.23c1.754 0 4.24.146 7.456.438 3.216.293 5.555.44 7.017.439 11.695 0 19.662-2.046 23.902-6.14 4.24-4.093 6.359-11.695 6.36-22.806V311.716c-.001-18.126-2.048-29.237-6.14-33.33-4.094-4.093-12.427-6.14-25-6.14h-13.595zM224.868 884.05V154.71h175.867c76.603 0 125.43 8.699 146.482 26.095 21.051 17.397 31.577 58.988 31.578 124.773v182.445c0 66.37-10.6 108.254-31.797 125.65-21.198 17.397-69.66 26.096-145.386 26.096h-22.367V884.05H224.868z" style="font-size:898.19207764px;font-style:normal;font-variant:normal;font-weight:400;font-stretch:normal;text-align:start;line-height:100%;writing-mode:lr-tb;text-anchor:start;fill:#fff;fill-opacity:1;stroke:none;stroke-width:1px;stroke-linecap:butt;stroke-linejoin:miter;stroke-opacity:1;font-family:Compacta Bd BT;-inkscape-font-specification:Compacta Bd BT"/></svg>
